icon-themes/sifr_svg/cmd/lc_toggletabbarvisibility.svg

<svg viewBox="0 0 24 24" xmlns="http://www.w3.org/2000/svg"><path d="m2 3v18h20v-13h-11v-5zm10 0v4h10v-4zm-8 2h5v5h11v9h-16z" fill="#555753"/></svg>

<svg xmlns="http://www.w3.org/2000/svg" viewBox="0 0 24 24">
  <path
     style="fill:#555753"
     d="M 2 3 L 2 21 L 22 21 L 22 8 L 11 8 L 11 3 L 2 3 z M 12 3 L 12 7 L 22 7 L 22 3 L 12 3 z M 4 5 L 9 5 L 9 10 L 20 10 L 20 19 L 4 19 L 4 5 z "
     />
</svg>
